Papirus-nordic/48x48/places/folder-red-mega.svg

<svg xmlns="http://www.w3.org/2000/svg" width="48" height="48" version="1"><rect width="40" height="26" x="4" y="17" rx="2" ry="2" opacity=".2"/><path d="M4 34c0 1.108.892 2 2 2h36c1.108 0 2-.892 2-2V12c0-1.108-.892-2-2-2H22V8c0-1.108-.892-2-2-2H6c-1.108 0-2 .892-2 2" fill="#ae4f58"/><rect width="40" height="26" x="4" y="15" rx="2" ry="2" opacity=".2"/><rect width="36" height="16" x="6" y="13" rx="2" ry="2" fill="#e4e4e4"/><rect width="40" height="26" x="4" y="16" rx="2" ry="2" fill="#bf616a"/><path d="M6 6c-1.108 0-2 .892-2 2v1c0-1.108.892-2 2-2h14c1.108 0 2 .892 2 2V8c0-1.108-.892-2-2-2zm16 4v1h20c1.108 0 2 .892 2 2v-1c0-1.108-.892-2-2-2z" opacity=".1" fill="#fff"/><path d="M24 22a7 7 0 1 0 0 14 7 7 0 0 0 0-14zm-4 3h2l2 3 2-3h2v8h-2v-4l-2 2-2-2v4h-2z" fill="#974a4d"/></svg>

<svg xmlns="http://www.w3.org/2000/svg" width="48" height="48" version="1">
 <rect style="opacity:0.2" width="40" height="26" x="4" y="17" rx="2" ry="2"/>
 <path style="fill:#ae4f58" d="M 4,34 C 4,35.108 4.892,36 6,36 H 42 C 43.108,36 44,35.108 44,34 V 12 C 44,10.892 43.108,10 42,10 H 24 C 21,10 20,6 17,6 H 6 C 4.892,6 4,6.892 4,8"/>
 <rect style="opacity:0.2" width="40" height="26" x="4" y="15" rx="2" ry="2"/>
 <rect style="fill:#e4e4e4" width="36" height="16" x="6" y="13" rx="2" ry="2"/>
 <rect style="fill:#bf616a" width="40" height="26" x="4" y="16" rx="2" ry="2"/>
 <path style="opacity:0.1;fill:#ffffff" d="M 6,6 C 4.892,6 4,6.892 4,8 V 9 C 4,7.892 4.892,7 6,7 H 17 C 20,7 21,11 24,11 H 42 C 43.108,11 44,11.892 44,13 V 12 C 44,10.892 43.108,10 42,10 H 24 C 21,10 20,6 17,6 Z"/>
 <path style="fill:#974a4d" d="M 24,22 C 20.134,22 17,25.134 17,29 17,32.866 20.134,36 24,36 27.866,36 31,32.866 31,29 31,25.134 27.866,22 24,22 Z M 20,25 H 22 V 25 25 L 24,28 26,25 H 28 V 33 H 26 V 29 L 24,31 22,29 V 33 H 20 Z"/>
</svg>
